!!!COM: Music21
!!!OTL: slide_Maulykeavane-Rambler--The
!!!OMV: slide_Maulykeavane-Rambler--The
**kern
*clefG2
*k[f#c#]
*D:
*M12/8
=1
4f#
8b
8aL
8g#X
8aJ
4f#
8b
8aL
8g#
8aJ
=
8bL
8cc#
8ddJ
4ee
8dd
4cc#
8a
4b
8a
=
4f#
8b
8aL
8g#X
8aJ
4f#
8b
8aL
8g#
8aJ
!!linebreak:original
=
8bL
8cc#
8ddJ
4ee
8a
4b
8cc#
4.dd
=||
*M12/8
4f#
8b
8aL
8g#X
8aJ
4f#
8b
8aL
8g#
8aJ
=
8bL
8cc#
8ddJ
4ee
8dd
4cc#
8a
4b
8a
!!linebreak:original
=
4f#
8b
8aL
8g#X
8aJ
4f#
8b
8aL
8g#
8aJ
=
8bL
8cc#
8ddJ
4ee
8a
4b
8cc#
4.dd
=||
8ff#L
8ff#
8ff#J
4ff#
8ee
4dd
8cc#
4b
8a
=
8bL
8cc#
8ddJ
4ee
8dd
4cc#
8a
4b
8a
!!linebreak:original
=
8ff#L
8ff#
8ff#J
4ff#
8ee
4dd
8cc#
4b
8a
=
8bL
8cc#
8ddJ
4ee
8a
4b
8cc#
4.dd
=||
8ff#L
8ff#
8ff#J
4ff#
8ee
4dd
8cc#
4b
8a
=
8bL
8cc#
8ddJ
4ee
8dd
4cc#
8a
4b
8a
!!linebreak:original
=
8ff#L
8ff#
8ff#J
4ff#
8ee
4dd
8cc#
4b
8a
=
8bL
8cc#
8ddJ
4ee
8a
4b
8cc#
4.dd
=||
*-
